packages/sources/icons/src/vitamix/amazon-fill.svg

<svg width="16" height="16" viewBox="0 0 16 16" fill="none" xmlns="http://www.w3.org/2000/svg">
<path fill-rule="evenodd" clip-rule="evenodd" d="M9.27 5.66267C9.27 5.59341 9.27027 5.52699 9.27053 5.46318C9.27289 4.88767 9.27438 4.525 9.06733 4.20933C8.86333 3.92067 8.512 3.74733 8.022 3.77467C7.49 3.804 6.91867 4.15267 6.77267 4.792C6.74467 4.93867 6.65867 5.08267 6.482 5.114L4.858 4.90733C4.742 4.88067 4.566 4.792 4.62333 4.56C4.972 2.72533 6.54 2.086 8.022 2H8.37067C9.184 2 10.2287 2.23267 10.8973 2.84267C11.6371 3.53322 11.6309 4.43993 11.624 5.43243V5.4325C11.6233 5.52846 11.6227 5.62522 11.6227 5.72267V8.34067C11.6227 9.07528 11.9009 9.42723 12.1993 9.80466L12.2613 9.88333C12.348 10.0293 12.3773 10.2013 12.2313 10.32C11.9113 10.61 11.302 11.1327 10.9533 11.4227C10.8373 11.5113 10.628 11.5207 10.5467 11.4527C10.1218 11.0967 9.9627 10.8719 9.74017 10.5574L9.74016 10.5574C9.69385 10.4919 9.64478 10.4226 9.59 10.3473C9.03667 10.928 8.57267 11.2487 8.02 11.4227C7.63134 11.5213 7.23164 11.5697 6.83067 11.5667C5.43733 11.5667 4.33333 10.698 4.33333 8.98C4.33333 7.614 5.06 6.68533 6.13333 6.246C7.20667 5.806 8.76667 5.666 9.26933 5.66333L9.27 5.66267ZM13.7879 14.084C14.3939 13.5713 14.6639 12.638 14.6639 12.1533L14.6645 12.1527C14.6645 11.9507 14.6352 11.872 14.6112 11.844C14.4845 11.6973 13.5979 11.5593 12.8312 11.7887C12.6145 11.8573 12.4259 11.9507 12.2512 12.074C12.1152 12.1673 12.1432 12.2873 12.2785 12.276C12.3743 12.2565 12.4875 12.2443 12.6143 12.2307L12.6144 12.2307L12.6144 12.2307L12.6144 12.2307C12.6827 12.2233 12.755 12.2156 12.8305 12.206C13.3025 12.1653 13.8559 12.1527 13.9892 12.3273C14.1792 12.5573 13.7745 13.5567 13.5979 13.9887C13.5445 14.1247 13.6665 14.1773 13.7879 14.084ZM12.8299 13.3827C13.0224 13.273 13.2072 13.1505 13.3833 13.016C13.6259 12.842 13.4106 12.57 13.1659 12.68C13.1098 12.7005 13.0493 12.7256 12.9888 12.7508L12.9888 12.7508L12.9887 12.7509L12.9887 12.7509C12.935 12.7732 12.8813 12.7956 12.8306 12.8147C11.2793 13.4227 9.65061 13.7053 8.14061 13.7053C5.73994 13.7053 3.42127 13.044 1.54794 11.9507C1.37394 11.8553 1.25061 12.0313 1.39927 12.1527C3.13794 13.7333 5.42927 14.678 7.99127 14.678C9.58327 14.678 11.4153 14.2327 12.8299 13.3827ZM9.26958 7.22707C9.27146 8.13742 9.27238 8.58553 8.95127 9.12401C8.74727 9.53267 8.46861 9.75668 8.02194 9.88068C7.95461 9.90001 7.87727 9.91068 7.78927 9.91068C7.15061 9.91068 6.77261 9.41601 6.77261 8.68934C6.77261 7.76001 7.32527 7.32134 8.02194 7.11934C8.39861 7.03067 8.83527 7.00067 9.26927 7.00067C9.26927 7.07925 9.26943 7.15462 9.26958 7.22707Z" fill="#001018"/>
</svg>

<svg width="16" height="16" fill="none" xmlns="http://www.w3.org/2000/svg"><path fill-rule="evenodd" clip-rule="evenodd" d="M9.27 5.663v-.2c.003-.575.004-.938-.203-1.254-.204-.288-.555-.462-1.045-.434-.532.029-1.103.378-1.25 1.017-.027.147-.113.29-.29.322l-1.624-.207c-.116-.026-.292-.115-.235-.347C4.972 2.725 6.54 2.086 8.022 2h.349c.813 0 1.858.233 2.526.843.74.69.734 1.597.727 2.59l-.001.29V8.34c0 .734.278 1.086.576 1.464l.062.078c.087.146.116.318-.03.437-.32.29-.929.813-1.278 1.103-.116.088-.325.098-.406.03-.425-.356-.584-.581-.807-.896a18.614 18.614 0 0 0-.15-.21c-.553.581-1.017.902-1.57 1.076a4.694 4.694 0 0 1-1.19.144c-1.393 0-2.497-.869-2.497-2.587 0-1.366.727-2.295 1.8-2.734 1.074-.44 2.634-.58 3.136-.583h.001zm4.518 8.421c.606-.513.876-1.446.876-1.93v-.001c0-.202-.029-.281-.053-.309-.127-.147-1.013-.285-1.78-.055a2.072 2.072 0 0 0-.58.285c-.136.093-.108.213.027.202.096-.02.21-.032.336-.045.069-.008.141-.015.216-.025.473-.04 1.026-.053 1.16.121.19.23-.216 1.23-.392 1.662-.054.136.068.188.19.095zm-.958-.701c.192-.11.377-.232.553-.367.243-.174.028-.446-.217-.336-.056.02-.117.046-.177.07-.054.023-.108.046-.158.065-1.552.608-3.18.89-4.69.89-2.401 0-4.72-.661-6.593-1.754-.174-.096-.297.08-.149.202 1.739 1.58 4.03 2.525 6.592 2.525 1.592 0 3.424-.445 4.839-1.295zM9.27 7.227c.001.91.002 1.359-.319 1.897-.204.409-.482.633-.93.757a.842.842 0 0 1-.232.03c-.638 0-1.016-.495-1.016-1.222 0-.929.552-1.368 1.249-1.57a5.637 5.637 0 0 1 1.247-.118v.226z" fill="#001018"/></svg>
